X:1
T:Let Us Away
T:George T. Kirkpatrick
T:Let Us Away
T:Public Domain
T:Public Domain
T:Public Domain
C:George T. Kirkpatrick
Z:Public Domain
%%score ( 1 2 ) 3
L:1/8
M:6/8
K:A
V:1 treble 
V:2 treble 
V:3 bass 
V:1
 [CE][^B,^D][CE] [Ec]2 [=D^B] | [CA][EG][DF] [CE]3 | [B,D][^A,C][B,D] [DG]2 [DF] | %3
w: 1.~Let us a- way, no|long- er de- lay,|Morn- ing with joy is|
w: 2.~Let us a- way, the|mes- sage o- bey,|Je- sus re- peats the|
w: 3.~Let us a- way, we|can- not de- lay,|Har- vest will soon be|
w: 4.~Let us a- way, O|let us a- way,|Lift- ing our eyes a-|
 (DC^B, [CE]2) z | [CE][^B,^D][CE] [Ec]2 [=Ge] | [Fe][Fd][DF] [DB]3 | [CE][Fd][Ec] [Ec]2 [DB] | %7
w: bright; * * *|us a- way and la-|bor to- day Out|in the fields so white.|
w: call; * * *|with a will, our mis-|sion ful- fill, Haste|to the work for all.|
w: o’er; * * *|ments and hours, like beau-|ti- ful flow’rs, Soon|will re- turn no more.|
w: bove; * * *|ful and true our la-|bor pur- sue, Trust-|ing a Sav- ior’s love.|
 [CA]3- [CA]2 z ||"^Refrain" (z [CE][CE]) (z [CE][CE]) | (z CC) (z CC) | z [CE][CE] (z C)[CF] | %11
w: ||||
w: On- *|||* * * bound-|
w: ||||
w: ||||
 z DD z DD | z [CE][CE] (z [CE][CE]) | z DD (z DD) | z ^D[DA] (z D)[DA] | z DD [DB]2 z | %16
w: |||||
w: |||* ward, * on-||
w: |||||
w: |||||
 z [CE][CE] (z [CE][CE]) | z [CE][CE] (z CC) | z D[DG] (z F)[FB] | z [^EG][EG] [EGc]2 z | %20
w: ||||
w: ||* sy * throng.||
w: ||||
w: ||||
 z [=Gc][Gc] (z [FB][FB]) | z [EF][EF] (z [DF][DF]) | E2 d [Ec]2 [EB] | [CEA]3- [CEA]2 z |] %24
w: ||||
w: ||* o’er the har-|plain; *|
w: ||||
w: ||||
V:2
 x6 | x6 | x6 | F3 x3 | x6 | x6 | x6 | x6 || A3 G3 | F3 E3 | A3 G2 x | G3- G2 x | B3 A3 | A3 A3 | %14
w: |||Let|||||||||||
w: |||Come|||||ward, on-|ward, *|ing *|a- *|long, *|On- *|
w: |||Mo-|||||||||||
w: |||Faith-|||||||||||
 B2 G2 x2 | B3- x3 | c3 c3 | A3 E3 | F2 A2 x2 | c3- x3 | e3 d3 | c3 B3 | E3- x3 | x6 |] %24
w: ||||||||||
w: ward, *|join|the *|bu- *|Shout- *|ing,|sing- *|ing, *|vest||
w: ||||||||||
w: ||||||||||
V:3
 [A,,A,][A,,A,][A,,A,] [A,,A,]2 [A,,E,] | [A,,E,][A,,A,][A,,A,] [A,,A,]3 | %2
 [E,G,][E,G,][E,G,] [E,B,]2 [E,G,] | [A,,A,]3- [A,,A,]2 z | [A,,A,][A,,A,][A,,A,] [A,,A,]2 [C,A,] | %5
 [D,A,][D,A,][D,A,] [D,F,]3 | [E,A,][E,A,][E,A,] [E,G,]2 [E,G,] | [A,,A,]3- [A,,A,]2 z || %8
 (A,,[E,A,][E,A,]) (A,,[E,A,][E,A,]) | (A,,[E,A,][E,A,]) (A,,[E,A,][E,A,]) | %10
 (A,,[E,A,][E,A,]) (A,,[E,A,])[E,A,] | (E,[G,B,][G,B,]) (E,[G,B,][G,B,]) | %12
 (A,,[E,A,][E,A,]) (A,,[E,A,][E,A,]) | (D,[F,A,][F,A,]) (D,[F,A,][F,A,]) | %14
 (B,,[F,A,][F,A,]) (B,,[F,A,][F,A,]) | (E,[G,B,][G,B,]) (E,F,E,) | %16
 (A,,[E,A,][E,A,]) (A,,[E,A,][E,A,]) | (A,,[E,A,][E,A,]) (A,,[E,A,][E,A,]) | %18
 (D,[F,A,][F,A,]) (D,[F,A,][F,A,]) | (C,[^E,G,C][E,G,C]) (C,F,=E,) | %20
 (^A,,[E,=G,][E,G,]) (B,,B,B,) | (C,[F,^A,][F,A,]) (D,[F,B,][F,B,]) | %22
 (E,[G,B,][G,B,]) (E,[G,D][G,D]) | (A,,E,C, A,,2) z |] %24

